!!!!SEGMENT: pl-cz--i-75--001_kobierkowicz-jozef--dormi-mei-redemptio.krn
!!!cenid: 17xx:919
!!!COM: Kobierkowicz, Józef
!!!COM-rismID: pe30017725
!!!CDT: <1721->=1735
!!!CNT: Polish
!!!OTL: Dormi mei redemptio
!!!PDT:
!!!AGN: Sacred
!!!SMS-siglum: PL-CZ
!!!SMS-shelfmark: I-75
!!!SMS-shelfwork: 001 W
!!!SMS-variant:
!!!SMS-altvar:
!!!NIFC-rismSourceID: 300237563
!!!NIFC-rismChildID: 300237564
!!!NIFC-islandoraID: pl-cz:31913
!!!URL-pdf-islandora: https://repozytorium.nifc.pl/islandora/object/pl-cz%3A31913/datastream/PDF/view
!!!URL-scan: https://polish.musicsources.pl/pl/lokalizacje/galeria/rekopisy/6746/1 @EN{Scan on Polish Music Sources Website} @PL{Skany w portalu Dziedzictwo Muzyki Polskiej w otwartym dostępie}
!!!IIIF:
!!!ONB-nifc: UWAGA: Dormi mei redemptio i Apparuit benignitas to osobne utwory
!!!AIN: 1 cbass 1 organ 1 soprn 2 violn
!!!key: A
**kern	**fba	**dynam	**kern	**kern	**dynam	**kern	**dynam	**kern	**text
*part5	*	*	*part4	*part3	*part3	*part2	*part2	*part1	*part1
*staff5	*	*	*staff4	*staff3	*	*staff2	*	*staff1	*staff1
*I"Organo	*	*	*I"Basso	*I"Viol 2do	*	*I"Viol. 1mo	*	*I"Soprano Solo	*
*I'org	*	*	*I'cb	*I'vl 2	*	*I'vl 1	*	*I'S	*
*Iorgan	*	*	*Icbass	*Ivioln	*	*Ivioln	*	*Isoprn	*
*ICklav	*	*	*ICstr	*ICstr	*	*ICstr	*	*ICvox	*
*IGcont	*	*	*IGcont	*IGacmp	*	*IGacmp	*	*IGsolo	*
*>[A,B,A]	*	*	*>[A,B,A]	*>[A,B,A]	*>[A,B,A]	*>[A,B,A]	*>[A,B,A]	*>[A,B,A]	*>[A,B,A]
*>A	*	*	*>A	*>A	*>A	*>A	*>A	*>A	*>A
*clefF4	*	*	*clefF4	*clefG2	*	*clefG2	*	*clefC1	*
*k[f#c#g#]	*	*	*k[f#c#g#]	*k[f#c#g#]	*	*k[f#c#g#]	*	*k[f#c#g#]	*
*A:	*	*	*A:	*A:	*	*A:	*	*A:	*
*M3/2	*	*	*M3/2	*M3/2	*	*M3/2	*	*M3/2	*
=1	=1	=1	=1	=1	=1	=1	=1	=1	=1
*2\right	*	*	*2\right	*	*	*	*	*	*
!	!	!	!	!	!	!LO:TX:b:t=Dormi	!	!LO:TX:a:t=15	!
!	!	!	!LO:TX:a:rj:t=1mo	!LO:TX:a:rj:t=1mo	!	!LO:TX:a:rj:t=1mo	!	!LO:TX:a:rj:t=1mo	!
!LO:TX:t=P:problem=znaki F# C# jeden nad drugim	!	!	!LO:TX:t=P:problem=znaki F# C# jeden nad drugim	!LO:TX:t=P:problem=znaki ff# cc# jeden nad drugim	!	!LO:TX:t=P:problem=znaki ff# cc# jeden nad drugim	!	!LO:TX:t=P:problem=znaki f# cc# (jeden nad drugim) g#	!
2A\	.	.	2A\	2a/	.	2a/	.	00.r	.
2r	.	.	2r	4cc#\	.	4ee\	.	.	.
.	.	.	.	4a/	.	4cc#\	.	.	.
2r	.	.	2r	4b/	.	4dd\	.	.	.
.	.	.	.	4g#/	.	4b\	.	.	.
=2	=2	=2	=2	=2	=2	=2	=2	=2	=2
2AA/	.	.	2AA/	4a/	.	4cc#\	.	.	.
.	.	.	.	8g#/L	.	8b/L	.	.	.
.	.	.	.	8f#/J	.	8a/J	.	.	.
2r	.	.	2r	2g#/	.	2b/	.	.	.
2E\	.	.	2E\	2r	.	2r	.	.	.
=3	=3	=3	=3	=3	=3	=3	=3	=3	=3
!	!	!	!	!	!LO:DY:b:t=Piano	!	!LO:DY:b:t=Piano	!	!
2AA/	.	.	2AA/	2a/	p	2a/	p	.	.
2r	.	.	2r	4cc#\	.	4ee\	.	.	.
.	.	.	.	4a/	.	4cc#\	.	.	.
2r	.	.	2r	4b/	.	4dd\	.	.	.
.	.	.	.	4g#/	.	4b\	.	.	.
=4	=4	=4	=4	=4	=4	=4	=4	=4	=4
2A\	.	.	2A\	4a/	.	4cc#\	.	.	.
.	.	.	.	8g#/L	.	8b/L	.	.	.
.	.	.	.	8f#/J	.	8a/J	.	.	.
2r	.	.	2r	2g#/	.	2b/	.	.	.
2E\	.	.	2E\	2r	.	2r	.	.	.
=5	=5	=5	=5	=5	=5	=5	=5	=5	=5
!	!	!	!	!	!LO:DY:b:t=forte	!	!LO:DY:b:t=forte	!	!
2E\	.	.	2E\	4e/	f	4g#/	f	00.r	.
.	.	.	.	4f#/	.	4a/	.	.	.
2r	.	.	2r	2g#/	.	2b/	.	.	.
*	*	*	*	*2\right	*	*2\right	*	*	*
2r	.	.	2r	2cc#\	.	2ee\	.	.	.
=6	=6	=6	=6	=6	=6	=6	=6	=6	=6
2E\	7	.	2E\	4b/	.	4dd\	.	.	.
.	.	.	.	4g#/	.	4b/	.	.	.
2r	.	.	2r	4a/	.	4cc#\	.	.	.
.	.	.	.	4f#/	.	4a/	.	.	.
2r	.	.	2r	2g#/	.	2b/	.	.	.
=7	=7	=7	=7	=7	=7	=7	=7	=7	=7
2E\	3	.	2E\	4e/	.	4g#/	.	.	.
.	.	.	.	4f#/	.	4a/	.	.	.
2r	.	.	2r	2g#/	.	2b/	.	.	.
2r	.	.	2r	2dd\	.	2ff#\	.	.	.
=8	=8	=8	=8	=8	=8	=8	=8	=8	=8
2E\	8 6	.	2E\	4cc#\	.	4ee\	.	.	.
.	.	.	.	4a/	.	4cc#\	.	.	.
2r	.	.	2r	4b/	.	4dd\	.	.	.
.	.	.	.	4g#/	.	4b\	.	.	.
2A\	.	.	2A\	2a/	.	2cc#\	.	.	.
=9	=9	=9	=9	=9	=9	=9	=9	=9	=9
2E\|	.	.	2E\	2g#/	.	2g#/	.	00.r	.
*	*	*	*	*custos:ff	*	*custos:f	*	*	*
!	!	!	!	!LO:LB:g=original	!	!LO:LB:g=original	!	!	!
2E\|	.	.	2E\	4ff#\	.	4f#/	.	.	.
.	.	.	.	4ee\	.	4e/	.	.	.
2E\|	.	.	2E\	2bb\	.	2b\	.	.	.
=10	=10	=10	=10	=10	=10	=10	=10	=10	=10
2E\|	.	.	2E\	2gg#\	.	2g#/	.	.	.
2E\|	.	.	2E\	4ff#\	.	4f#/	.	.	.
.	.	.	.	4ee\	.	4e/	.	.	.
2E\|	.	.	2E\	2b/	.	2ee\	.	.	.
*	*	*	*custos:E	*	*	*	*	*	*
!	!	!	!LO:LB:g=original	!	!	!	!	!	!
=11	=11	=11	=11	=11	=11	=11	=11	=11	=11
2E\|	.	.	2E\	2gg#\	.	2g#/	.	.	.
2E\|	.	.	2E\	4ff#\	.	4f#/	.	.	.
.	.	.	.	4ee\	.	4e/	.	.	.
2E\|	.	.	2E\	2d/	.	2dd\	.	.	.
!LO:LB:g=original	!	!	!	!	!	!	!	!	!
=12	=12	=12	=12	=12	=12	=12	=12	=12	=12
2E\|	.	.	2E\	4c#/	.	4cc#\	.	.	.
.	.	.	.	4e/	.	4ee\	.	.	.
2E\|	.	.	2E\	4c#/	.	4cc#\	.	.	.
.	.	.	.	4gg#\	.	4g#/	.	.	.
2AA/	3	.	2AA/	2aa\	.	2a/	.	.	.
=13	=13	=13	=13	=13	=13	=13	=13	=13	=13
2AA/|>	.	.	2AA/	4aa\	.	4aa\	.	0.r	.
.	.	.	.	4ccc#\	.	4ccc#\	.	.	.
2AA/|>	.	.	2AA/	4ddd\	.	4ddd\	.	.	.
.	.	.	.	4bb\	.	4bb\	.	.	.
2AA/|>	.	.	2AA/	4ccc#\	.	4ccc#\	.	.	.
.	.	.	.	4gg#\	.	4gg#\	.	.	.
=14	=14	=14	=14	=14	=14	=14	=14	=14	=14
2AA/|>	.	.	2AA/	4aa\	.	4aa\	.	.	.
.	.	.	.	4ccc#\	.	4ccc#\	.	.	.
2AA/|>	.	.	2AA/	4ddd\	.	4ddd\	.	.	.
.	.	.	.	4bb\	.	4bb\	.	.	.
2AA/|>	.	.	2AA/	4ccc#\	.	4ccc#\	.	.	.
.	.	.	.	4gg#\	.	4gg#\	.	.	.
=15	=15	=15	=15	=15	=15	=15	=15	=15	=15
2AA/	.	.	2AA/	2aa\	.	2aa\	.	1.r	.
2r	.	.	2r	2r	.	2r	.	.	.
2r	.	.	2r	2r	.	2r	.	.	.
=16	=16	=16	=16	=16	=16	=16	=16	=16	=16
*	*	*	*	*	*	*	*	*2\right	*
!	!	!LO:DY:b:t=Piano	!	!	!LO:DY:b:t=Piano	!	!LO:DY:b:t=Piano	!	!
2AA/	.	p	2AA/	2a/	p	2a/	p	2a\	Dor-
!	!	!	!	!	!	!	!	!LO:TX:t=P:global:problem=oddech jako rozdzielacz słów	!
2r	.	.	2r	4cc#\	.	4ee\	.	4ee,<\	-mi
.	.	.	.	4a/	.	4cc#\	.	4cc#\	me-
2r	.	.	2r	4b/	.	4dd\	.	4dd,<\	-i
.	.	.	.	4g#/	.	4b\	.	4b\	re-
=17	=17	=17	=17	=17	=17	=17	=17	=17	=17
2AA/	.	.	2AA/	4a/	.	4cc#\	.	4cc#\	-dem-
.	.	.	.	8g#/L	.	8b/L	.	(8b\	-pti-
.	.	.	.	8f#/J	.	8a/J	.	8a\)	.
2r	.	.	2r	2g#/	.	2b/	.	2b\	-o
2E\	.	.	2E\	2r	.	2r	.	2r	.
=18	=18	=18	=18	=18	=18	=18	=18	=18	=18
2AA/	.	.	2AA/	2a/	.	2a/	.	2a\	Sa-
2r	.	.	2r	4cc#\	.	4ee\	.	4ee\	-lu-
.	.	.	.	4a/	.	4cc#\	.	4cc#,<\	-tis
*	*	*	*	*	*	*custos:dd	*	*	*
!	!	!	!	!	!	!LO:LB:g=original	!	!	!
2r	.	.	2r	4b/	.	4dd\	.	4dd\	al-
.	.	.	.	4g#/	.	4b\	.	4b\	-ma
*	*	*	*	*custos:a	*	*	*	*	*
!	!	!	!	!LO:LB:g=original	!	!	!	!	!
=19	=19	=19	=19	=19	=19	=19	=19	=19	=19
2AA/	.	.	2AA/	4a/	.	4cc#\	.	4cc#\	por-
.	.	.	.	8g#/L	.	8b/L	.	(8b\	-ti-
.	.	.	.	8f#/J	.	8a/J	.	8a\)	.
2r	.	.	2r	2g#/	.	2b/	.	2b\	-o
2E\	.	.	2E\	2r	.	2r	.	2r	.
*	*	*	*	*	*	*	*	*custos:g	*
!	!	!	!	!	!	!	!	!LO:LB:g=original	!
=20	=20	=20	=20	=20	=20	=20	=20	=20	=20
2E\|	.	.	2E\	4e/	.	4g#/	.	(4g#\	cor-
.	.	.	.	4f#/	.	4a/	.	4a\)	.
2E\|	.	.	2E\	2g#/	.	2b/	.	2b,<\	-dis
2E\|	.	.	2E\	2cc#\	.	2ee\	.	2ee\	to-
!	!	!	!LO:LB:g=original	!	!	!	!	!	!
=21	=21	=21	=21	=21	=21	=21	=21	=21	=21
2E\|	.	.	2E\	4b/	.	4dd\	.	4dd,<\	-tum
.	.	.	.	4g#/	.	4b\	.	4b\	de-
2E\|	.	.	2E\	4a/	.	4cc#\	.	4cc#\	-li-
.	.	.	.	4f#/	.	4a/	.	4a\	-ci-
2E\|	.	.	2E\	2g#/	.	2b/	.	2b\	-um
=22	=22	=22	=22	=22	=22	=22	=22	=22	=22
2E\|	.	.	2E\	4e/	.	4g#/	.	(4g#\	vi-
.	.	.	.	4f#/	.	4a/	.	4a\)	.
2E\|	.	.	2E\	2g#/	.	2b/	.	2b,<\	-tae
2E\|	.	.	2E\	2dd\	.	2ff#\	.	2ff#\	me-
!LO:LB:g=original	!	!	!	!	!	!	!	!	!
=23	=23	=23	=23	=23	=23	=23	=23	=23	=23
2E\|	.	.	2E\	4cc#\	.	4ee\	.	4ee,<\	-ae
.	.	.	.	4a/	.	4cc#\	.	4cc#\	prin-
2E\|	.	.	2E\	4b/	.	4dd\	.	4dd\	-ci-
.	.	.	.	4g#/	.	4b\	.	4b\	-pi-
2E\|	.	.	2E\	2a/	.	2cc#\	.	2cc#\	-um
=24	=24	=24	=24	=24	=24	=24	=24	=24	=24
2E\|	.	.	2E\	2gg#\	.	2g#/	.	2g#/	cor-
2E\|	.	.	2E\	4ff#\	.	4f#/	.	4f#,</	-dis
.	.	.	.	4ee\	.	4e/	.	4e/	to-
2E\|	.	.	2E\	2bb\	.	2b\	.	2b\	-tum
=25	=25	=25	=25	=25	=25	=25	=25	=25	=25
2E\|	.	.	2E\	2gg#\	.	2g#/	.	2g#/	de-
2E\|	.	.	2E\	4ff#\	.	4f#/	.	4f#/	-li-
.	.	.	.	4ee\	.	4e/	.	4e/	-ci-
*	*	*	*	*	*	*	*	*custos:ee	*
!	!	!	!	!	!	!	!	!LO:LB:g=original	!
2E\|	.	.	2E\	2e/	.	2ee\	.	2ee\	-um
=26	=26	=26	=26	=26	=26	=26	=26	=26	=26
2E\|	.	.	2E\	2gg#\	.	2g#/	.	2g#/	cor-
2E\|	.	.	2E\	4ff#\	.	4f#/	.	4f#/	-dis
.	.	.	.	4ee\	.	4e/	.	4e/	to-
2E\|	.	.	2E\	2bb\	.	2b\	.	2b\	-tum
=27	=27	=27	=27	=27	=27	=27	=27	=27	=27
2E\|	.	.	2E\	2gg#\	.	2g#/	.	2g#/	de-
2E\|	.	.	2E\	4ff#\	.	4f#/	.	4f#/	-li-
.	.	.	.	4ee\	.	4e/	.	4e/	-ci-
2E\|	.	.	2E\	2d/	.	2dd\	.	2dd\	-um
=28	=28	=28	=28	=28	=28	=28	=28	=28	=28
2AA/|>	.	.	2AA/	4c#/	.	4cc#\	.	(4cc#\	Dor-
.	.	.	.	4e/	.	4ee\	.	4ee\)	.
2AA/|>	.	.	2AA/	4c#/	.	4cc#\	.	(4cc#\	.
.	.	.	.	4gg#\	.	4g#/	.	4g#/)	.
2AA/|>	.	.	2AA/	2aa\	.	2a/	.	2a\	-mi
*	*	*	*	*	*	*custos:a	*	*	*
!	!	!	!	!	!	!LO:LB:g=original	!	!	!
=29	=29	=29	=29	=29	=29	=29	=29	=29	=29
2AA/|>	.	.	2AA/	4aa\	.	4a/	.	(4a\	dor-
.	.	.	.	4ccc#\	.	4cc#\	.	4cc#\)	.
2AA/|>	.	.	2AA/	4ddd\	.	4dd\	.	(4dd\	.
.	.	.	.	4bb\	.	4b\	.	4b\)	.
*	*	*	*	*custos:ccc	*	*	*	*	*
!	!	!	!	!LO:LB:g=original	!	!	!	!	!
2AA/|>	.	.	2AA/	4ccc#\	.	4cc#\	.	4cc#\	.
.	.	.	.	4gg#\	.	4g#/	.	4g#/	.
=30	=30	=30	=30	=30	=30	=30	=30	=30	=30
2AA/|>	.	.	2AA/	4aa\	.	4a/	.	(4a\	.
.	.	.	.	4ccc#\	.	4cc#\	.	4cc#\)	.
2AA/|>	.	.	2AA/	4ddd\	.	4dd\	.	(4dd\	.
.	.	.	.	4bb\	.	4b\	.	4b\)	.
2E\	6 4	.	2E\	4ccc#\	.	4cc#\	.	4cc#\	.
.	3	.	.	4gg#\	.	4g#/	.	4g#/	.
!	!	!	!LO:LB:g=original	!	!	!	!	!	!
=31	=31	=31	=31	=31	=31	=31	=31	=31	=31
4A\	8	.	4A\	4a/	.	4aa\	.	2a\	-mi
8G#\L	8	.	8G#\L	8g#/L	.	8gg#\L	.	.	.
8F#\J	8	.	8F#\J	8f#/J	.	8ff#\J	.	.	.
2E\	8	.	2E\	2e/	.	2ee\	.	2r	.
*	*	*	*	*	*	*	*	*custos:a	*
!	!	!	!	!	!	!	!	!LO:LB:g=original	!
2F#\	8	.	2F#\	2f#/	.	2ff#\	.	[2a\	dor-
=32	=32	=32	=32	=32	=32	=32	=32	=32	=32
4D/	8	.	4D/	4d/	.	4dd\	.	1a]	.
4BB/	8	.	4BB/	4B/	.	4b\	.	.	.
4E\	8	.	4E\	4e/	.	4ee\	.	.	.
4C#/	8	.	4C#/	4c#/	.	4cc#\	.	.	.
2AA/	8	.	2AA/	2A/	.	2a/	.	2a\	-mi
=33	=33	=33	=33	=33	=33	=33	=33	=33	=33
2AA/|>	.	.	2AA/	4a/	.	4aa\	.	4aa\	dor-
.	.	.	.	8g#/L	.	8gg#\L	.	8gg#\L	.
.	.	.	.	8f#/J	.	8ff#\J	.	8ff#\J	.
2AA/|>	.	.	2AA/	2e/	.	2ee\	.	2ee\	.
2AA/|>	.	.	2AA/	2f#/	.	2ff#\	.	2ff#\	.
!LO:PB:g=original	!	!	!	!	!	!	!	!	!
=34	=34	=34	=34	=34	=34	=34	=34	=34	=34
2AA/|>	.	.	2AA/	4d/	.	4dd\	.	(4dd\	.
.	.	.	.	4B/	.	4b/	.	4b\)	.
2AA/|>	.	.	2AA/	4e/	.	4ee\	.	(4ee\	.
.	.	.	.	4c#/	.	4cc#\	.	4cc#\)	.
2AA/|>	.	.	2AA/	2A/	.	2a/	.	2a\	-mi
=35	=35	=35	=35	=35	=35	=35	=35	=35	=35
2E\	3	.	2E\	2r	.	2r	.	2b\	dor-
2AA/	3	.	2AA/	2r	.	2r	.	2cc#\	-mi
2r	.	.	2r	2a/	.	2cc#\	.	2r	.
=36	=36	=36	=36	=36	=36	=36	=36	=36	=36
2E\	.	.	2E\	2r	.	2r	.	2b\	dor-
2AA/	.	.	2AA/	2r	.	2r	.	2cc#\	-mi
2r	.	.	2r	2a/	.	2cc#\	.	2r	.
=37	=37	=37	=37	=37	=37	=37	=37	=37	=37
!	!	!	!	!	!	!LO:TX:t=P:problem=wykreślony takt	!	!	!
2E\	8	.	2E\	2e/	.	2ee\	.	2e/	cor-
2G#\	8	.	2G#\	2g#/	.	2gg#\	.	2g#\	-dis
2B\	8	.	2B\	2b/	.	2bb\	.	2b\	to-
=38	=38	=38	=38	=38	=38	=38	=38	=38	=38
2d\	8	.	2d\	2dd\	.	2ddd\	.	2dd,<\	-tum
!	!	!	!	!	!	!LO:LB:g=original	!	!	!
2G#\	8	.	2G#\	2g#/	.	2gg#\	.	(2g#/	de-
2B\	8	.	2B\	2b/	.	2bb\	.	2b\)	.
*	*	*	*	*	*	*	*	*custos:e	*
!	!	!	!	!	!	!	!	!LO:LB:g=original	!
=39	=39	=39	=39	=39	=39	=39	=39	=39	=39
2.E\	8	.	2.E\	2.e/	.	2.ee\	.	2.e/	-li-
4G#\	8	.	4G#\	4g#/	.	4gg#\	.	4g#/	-ci-
2A\	8	.	2A\	2a/	.	2aa\	.	2a\	-um
!	!	!	!LO:LB:g=original	!LO:LB:g=original	!	!	!	!	!
=40	=40	=40	=40	=40	=40	=40	=40	=40	=40
2E\	8	.	2E\	2e/	.	2ee\	.	2e/	vi-
2G#\	8	.	2G#\	2g#/	.	2gg#\	.	2g#,</	-tae
2B\	8	.	2B\	2b/	.	2bb\	.	2b/	me-
=41	=41	=41	=41	=41	=41	=41	=41	=41	=41
2d\	8	.	2d\	2dd\	.	2ddd\	.	2dd,<\	-ae
2G#\	8	.	2G#\	2g#/	.	2gg#\	.	(<2g#/	prin-
2B\	8	.	2B\	2b/	.	2bb\	.	2b\)	.
=42	=42	=42	=42	=42	=42	=42	=42	=42	=42
2.E\	8	.	2.E\	2.e/	.	2.ee\	.	2.e/	-ci-
4G#\	8	.	4G#\	4g#/	.	4gg#\	.	4g#/	-pi-
2A\	8	.	2A\	2a/	.	2aa\	.	2a\	-um
=43	=43	=43	=43	=43	=43	=43	=43	=43	=43
!LO:TX:a:t=3	!	!	!LO:TX:a:t=3	!LO:TX:a:t=2	!	!LO:TX:a:t=1	!	!	!
0.r	.	.	0.r	0.r	.	1.r	.	2.ee\	dor-
.	.	.	.	.	.	.	.	4e/	.
.	.	.	.	.	.	.	.	2a\	-mi
=44	=44	=44	=44	=44	=44	=44	=44	=44	=44
!	!	!	!	!	!	!	!LO:DY:b:rj:t=forte	!LO:TX:a:t=3	!
.	.	.	.	.	.	2.ee\	f	0.r	.
.	.	.	.	.	.	4e/	.	.	.
.	.	.	.	.	.	2a/	.	.	.
=45	=45	=45	=45	=45	=45	=45	=45	=45	=45
!	!	!	!	!	!LO:DY:b:rj:t=forte	!LO:TX:a:t=2	!	!	!
1.r	.	.	1.r	2.ee\	f	0.r	.	.	.
.	.	.	.	4e/	.	.	.	.	.
.	.	.	.	2a/	.	.	.	.	.
=46	=46	=46	=46	=46	=46	=46	=46	=46	=46
!	!	!	!	!LO:TX:b:t=Finis	!	!	!	!	!
2.e\	.	.	2.e\	1.r;	.	.	.	1.r;	.
4E\	.	.	4E\	.	.	.	.	.	.
!LO:TX:b:t=Finis	!	!	!LO:TX:b:t=Finis	!	!	!LO:TX:b:t=Finis	!	!	!
2A\	.	.	2A;\	.	.	.	.	.	.
!LO:PLB:g=original	!	!	!	!	!	!	!	!	!
=47||	=47||	=47||	=47||	=47||	=47||	=47||	=47||	=47||	=47||
*>B	*	*	*>B	*>B	*>B	*>B	*>B	*>B	*>B
!	!	!	!	!	!LO:DY:b:t=Piano	!	!LO:DY:b:t=Piano	!	!
2E\	3	.	2E\	2g#/	p	2b/	p	2b,<\	Tu
2r	.	.	2r	2e/	.	2g#/	.	2g#/	par-
2r	.	.	2r	2f#/	.	2a/	.	2a\	-ve
=48	=48	=48	=48	=48	=48	=48	=48	=48	=48
1E	.	.	1E	1g#	.	1b	.	1b	ma-
2AA/	.	.	2AA/	2a/	.	2cc#\	.	2cc#\	-gne
!	!	!	!	!	!	!	!	!LO:LB:g=original	!
=49	=49	=49	=49	=49	=49	=49	=49	=49	=49
2E\	.	.	2E\	4g#/	.	4b/	.	4b\	par-
.	.	.	.	4f#/	.	4a/	.	4a\	-vu-
2r	.	.	2r	2e/	.	2g#/	.	2g#/	-le
2E\	.	.	2E\	2r	.	2r	.	2r	.
=50	=50	=50	=50	=50	=50	=50	=50	=50	=50
2E\	.	.	2E\	2g#/	.	2b/	.	2b\	Gran-
2r	.	.	2r	2e/	.	2g#/	.	2g#/	-dis
2r	.	.	2r	2f#/	.	2a/	.	2a\	que
=51	=51	=51	=51	=51	=51	=51	=51	=51	=51
1E	.	.	1E	1g#	.	1b	.	1b	ce-
2AA/	.	.	2AA/	2a/	.	2cc#\	.	2cc#\	-li
!	!	!	!	!	!	!LO:LB:g=original	!	!	!
=52	=52	=52	=52	=52	=52	=52	=52	=52	=52
2E\	.	.	2E\	4g#/	.	4b/	.	4b\	ba-
.	.	.	.	4f#/	.	4a/	.	4a\	-ju-
2r	.	.	2r	2e/	.	2g#/	.	2g#/	-le
2E\	.	.	2E\	2r	.	2r	.	2r	.
*	*	*	*custos:BB	*	*	*	*	*	*
!	!	!	!LO:LB:g=original	!LO:LB:g=original	!	!	!	!	!
=53	=53	=53	=53	=53	=53	=53	=53	=53	=53
2BB/	#	.	2BB/	2d#X/	.	2f#/	.	2f#/	me-
2r	.	.	2r	2d#/	.	2f#/	.	2f#/	-o
2r	.	.	2r	2g#/	.	2b/	.	2b\	re-
=54	=54	=54	=54	=54	=54	=54	=54	=54	=54
!LO:TX:t=P:problem=brak taktu	!	!	!	!	!	!	!	!	!
1.ryy	.	.	2BB/	1f#	.	1a	.	1a	-cum-
.	.	.	2r	.	.	.	.	.	.
.	.	.	2r	2e/	.	2g#/	.	2g#/	-be
=55	=55	=55	=55	=55	=55	=55	=55	=55	=55
2BB/	7 #	.	2BB/	4f#/	.	4a/	.	4a\	cor
.	.	.	.	4d#X/	.	4f#/	.	4f#/	cu-
2r	.	.	2r	2e/	.	2g#/	.	2g#/	-lo
2E\	.	.	2E\	2r	.	2r	.	2r	.
!	!	!	!	!	!	!	!	!LO:LB:g=original	!
=56	=56	=56	=56	=56	=56	=56	=56	=56	=56
2BB/	Z#	.	2BB/	2d#X/	.	2f#/	.	2f#/	me-
2r	.	.	2r	2d#/	.	2f#/	.	2f#,</	-o
2r	.	.	2r	2g#/	.	2b/	.	2b\	qui
=57	=57	=57	=57	=57	=57	=57	=57	=57	=57
2BB/	7_ #_	.	2BB/	1f#	.	1a	.	1a	e[[sce]]-
2r	.	.	2r	.	.	.	.	.	.
2r	.	.	2r	2e/	.	2g#/	.	2g#/	-ſce
=58	=58	=58	=58	=58	=58	=58	=58	=58	=58
2BB/	.	.	2BB/	4f#/	.	4a/	.	4a\	mo-
.	X X	.	.	4d#X/	.	4f#/	.	4f#/	-du-
2r	.	.	2r	2e/	.	2g#/	.	2g#/	-lo
!LO:TX:a:t=Da \nCapo	!	!	!LO:TX:a:t=Da Capo	!LO:TX:a:t=Da Capo	!	!LO:TX:a:t=DaCapo	!	!LO:TX:a:t=Da Capo	!
2E\	.	.	2E\	2r	.	2r	.	2r	.
==	==	==	==	==	==	==	==	==	==
*-	*-	*-	*-	*-	*-	*-	*-	*-	*-
!!!system-decoration: s1[(s2,s3,s4)]s5
!!!RDF**kern: > = above
!!!RDF**kern: < = below
!!!RDF**kern: | = vertical stroke
!!!ENC: Berenika Jozajtis
!!!END: 2020-07-22
!!!ENC: Marta Lawrence
!!!END: 2021-12-28
!!!YEC: Copyright 2022 Narodowy Instytut Fryderyka Chopina (https://polishscores.org)
!!!YEM: License CC-BY-4.0 (https://creativecommons.org/licenses/by/4.0)
